docs/figs/debug-regions-containers.svg

<svg class="typst-doc" viewBox="0 0 595.2755905511812 841.8897637795276" width="595.2755905511812pt" height="841.8897637795276pt" xmlns="http://www.w3.org/2000/svg" xmlns:xlink="http://www.w3.org/1999/xlink" xmlns:h5="http://www.w3.org/1999/xhtml">
    <path class="typst-shape" fill="#ffffff" fill-rule="nonzero" d="M 0 0v 841.8898 h 595.2756 v -841.8898 Z "/>
    <g>
        <g class="typst-group">
            <g>
                <g class="typst-group" transform="matrix(1 0 0 1 70.86614173228347 70.86614173228347)">
                    <g>
                        <path class="typst-shape" fill="url(#pB48D8092B150033E07940FFEEBA3FB88)" fill-rule="nonzero" stroke="#2ecc40" stroke-width="1" stroke-linecap="butt" stroke-linejoin="miter" stroke-miterlimit="4" d="M 0 0v 350.07874 h 272.12598 v -350.07874 Z "/>
                    </g>
                </g>
                <g class="typst-group" transform="matrix(1 0 0 1 70.86614173228347 420.9448818897638)">
                    <g>
                        <path class="typst-shape" fill="url(#pB48D8092B150033E07940FFEEBA3FB88)" fill-rule="nonzero" stroke="#2ecc40" stroke-width="1" stroke-linecap="butt" stroke-linejoin="miter" stroke-miterlimit="4" d="M 0 0v 350.07874 h 272.12598 v -350.07874 Z "/>
                    </g>
                </g>
                <g class="typst-group" transform="matrix(1 0 0 1 365.6692913385827 70.86614173228347)">
                    <g>
                        <path class="typst-shape" fill="url(#pB48D8092B150033E07940FFEEBA3FB88)" fill-rule="nonzero" stroke="#2ecc40" stroke-width="1" stroke-linecap="butt" stroke-linejoin="miter" stroke-miterlimit="4" d="M 0 0v 350.07874 h 158.74016 v -350.07874 Z "/>
                    </g>
                </g>
                <g class="typst-group" transform="matrix(1 0 0 1 365.6692913385827 420.9448818897638)">
                    <g>
                        <path class="typst-shape" fill="url(#pB48D8092B150033E07940FFEEBA3FB88)" fill-rule="nonzero" stroke="#2ecc40" stroke-width="1" stroke-linecap="butt" stroke-linejoin="miter" stroke-miterlimit="4" d="M 0 0v 350.07874 h 158.74016 v -350.07874 Z "/>
                    </g>
                </g>
            </g>
        </g>
    </g>
    <defs id="tilings">
        <pattern id="tDA811888C1BD8ACABB544694C08C9DDB" width="30" height="30" patternUnits="userSpaceOnUse" viewBox="0 0 30.000 30.000">
            <g>
                <g class="typst-group">
                    <g>
                        <path class="typst-shape" fill="#2ecc400d" fill-rule="nonzero" d="M 0 0v 30 h 30 v -30 Z "/>
                    </g>
                </g>
                <path class="typst-shape" fill="none" stroke="#2ecc40" stroke-width="0.1" stroke-linecap="butt" stroke-linejoin="miter" stroke-miterlimit="4" transform="matrix(1 0 0 1 7.5 15)" d="M 0 0h 15 "/>
                <path class="typst-shape" fill="none" stroke="#2ecc40" stroke-width="0.1" stroke-linecap="butt" stroke-linejoin="miter" stroke-miterlimit="4" transform="matrix(1 0 0 1 15 7.5)" d="M 0 0v 15 "/>
            </g>
        </pattern>
    </defs>
    <defs id="tilings-refs">
        <pattern patternTransform="matrix(1 0 0 1 0 0)" id="pB48D8092B150033E07940FFEEBA3FB88" href="#tDA811888C1BD8ACABB544694C08C9DDB" xlink:href="#tDA811888C1BD8ACABB544694C08C9DDB"/>
    </defs>
</svg>

<svg class="typst-doc" viewBox="0 0 595.2755905511812 841.8897637795276" width="595.2755905511812pt" height="841.8897637795276pt" xmlns="http://www.w3.org/2000/svg" xmlns:xlink="http://www.w3.org/1999/xlink" xmlns:h5="http://www.w3.org/1999/xhtml">
    <path class="typst-shape" fill="#ffffff" fill-rule="nonzero" d="M 0 0 L 0 841.8898 L 595.2756 841.8898 L 595.2756 0 Z "/>
    <g>
        <g transform="translate(70.86614173228347 70.86614173228347)">
            <g class="typst-group">
                <g>
                    <g transform="translate(0 0)">
                        <g class="typst-group">
                            <g>
                                <g transform="translate(-0 -0)">
                                    <path class="typst-shape" fill="url(#p6C1EBEFE74FC8E560085FD4E3F7EA07E)" fill-rule="nonzero" stroke="#2ecc40" stroke-width="1" stroke-linecap="butt" stroke-linejoin="miter" stroke-miterlimit="4" d="M 0 0 L 0 350.07874 L 272.12598 350.07874 L 272.12598 0 Z "/>
                                </g>
                            </g>
                        </g>
                    </g>
                    <g transform="translate(0 350.0787401574803)">
                        <g class="typst-group">
                            <g>
                                <g transform="translate(-0 -0)">
                                    <path class="typst-shape" fill="url(#p6C1EBEFE74FC8E560085FD4E3F7EA07E)" fill-rule="nonzero" stroke="#2ecc40" stroke-width="1" stroke-linecap="butt" stroke-linejoin="miter" stroke-miterlimit="4" d="M 0 0 L 0 350.07874 L 272.12598 350.07874 L 272.12598 0 Z "/>
                                </g>
                            </g>
                        </g>
                    </g>
                    <g transform="translate(294.8031496062992 0)">
                        <g class="typst-group">
                            <g>
                                <g transform="translate(-0 -0)">
                                    <path class="typst-shape" fill="url(#p6C1EBEFE74FC8E560085FD4E3F7EA07E)" fill-rule="nonzero" stroke="#2ecc40" stroke-width="1" stroke-linecap="butt" stroke-linejoin="miter" stroke-miterlimit="4" d="M 0 0 L 0 350.07874 L 158.74016 350.07874 L 158.74016 0 Z "/>
                                </g>
                            </g>
                        </g>
                    </g>
                    <g transform="translate(294.8031496062992 350.0787401574803)">
                        <g class="typst-group">
                            <g>
                                <g transform="translate(-0 -0)">
                                    <path class="typst-shape" fill="url(#p6C1EBEFE74FC8E560085FD4E3F7EA07E)" fill-rule="nonzero" stroke="#2ecc40" stroke-width="1" stroke-linecap="butt" stroke-linejoin="miter" stroke-miterlimit="4" d="M 0 0 L 0 350.07874 L 158.74016 350.07874 L 158.74016 0 Z "/>
                                </g>
                            </g>
                        </g>
                    </g>
                </g>
            </g>
        </g>
    </g>
    <defs id="tilings">
        <pattern id="tD06D5C9FDDE18B7ECBF28FBB1815F39E" width="30" height="30" patternUnits="userSpaceOnUse" viewBox="0 0 30.000 30.000">
            <g>
                <g transform="translate(0 0)">
                    <g class="typst-group">
                        <g>
                            <g transform="translate(-0 -0)">
                                <path class="typst-shape" fill="#2ecc400d" fill-rule="nonzero" d="M 0 0 L 0 30 L 30 30 L 30 0 Z "/>
                            </g>
                        </g>
                    </g>
                </g>
                <g transform="translate(7.5 15)">
                    <path class="typst-shape" fill="none" stroke="#2ecc40" stroke-width="0.1" stroke-linecap="butt" stroke-linejoin="miter" stroke-miterlimit="4" d="M 0 0 L 15 0 "/>
                </g>
                <g transform="translate(15 7.5)">
                    <path class="typst-shape" fill="none" stroke="#2ecc40" stroke-width="0.1" stroke-linecap="butt" stroke-linejoin="miter" stroke-miterlimit="4" d="M 0 0 L 0 15 "/>
                </g>
            </g>
        </pattern>
    </defs>
    <defs id="tilings-refs">
        <pattern patternTransform="matrix(1 0 0 1 0 0)" id="p6C1EBEFE74FC8E560085FD4E3F7EA07E" href="#tD06D5C9FDDE18B7ECBF28FBB1815F39E" xlink:href="#tD06D5C9FDDE18B7ECBF28FBB1815F39E"/>
    </defs>
</svg>
